X:77
T:Father Kelly's
R:reel
M:4/4
K:G
GA|"G"B2GB "D"AGEG|"G"DGGF GABd|"C"cBAB cBAG|"Am"EAAG "D7"FGAc|
"G"B2GB "D"AGEG|"G"DGGF GABd|"C"cdef "G"gdBd|"D7"cAFA "G"G2:|
|:Bc|"G"d2Bd gdBd|d2Bd gdBd|"C"e2ce agfe|"D7"defg agfe|
"G"d2Bd gdBd|d2Bd gdBd|"C"c2Ac "G"BAGB|"D"AGFA "G"G2:|
